X: 104
T:Providence Reel, The
M:C|
L:1/8
R:Reel
K:D
E3F DEFA|d2fd gdfd|edBd A2FA|BdAF GFED|!
EA,CE DEFA|d2fd gdfd|edBd A2FA|1BdAG FDDF:|2BdAG FDD2|!
|:fd~d2 fdgd|fd~d2 ecAg|fd~d2 fded|ceag fdde|!
fgaf gfec|dcAF G2FG|A2FB ABde|1faeg fdd2:|2faeg fdAF|]!
